src/lib/packages/icons/src/assets/filled/package-star.svg

<svg width="24" height="24" viewBox="0 0 24 24" fill="none" xmlns="http://www.w3.org/2000/svg">
<path d="M20.7 10.75H3.30005C3.13405 10.75 3 10.884 3 11.05V18C3 20 4 21 6 21H18C20 21 21 20 21 18V11.05C21 10.884 20.866 10.75 20.7 10.75ZM15.382 14.9L14.1219 16.102C14.0299 16.19 13.988 16.317 14.01 16.441L14.298 18.087C14.356 18.421 14 18.675 13.694 18.518L12.182 17.74C12.069 17.682 11.9329 17.682 11.8199 17.74L10.309 18.517C10.003 18.675 9.64498 18.419 9.70398 18.085L9.99194 16.441C10.0139 16.317 9.972 16.19 9.88 16.102L8.62 14.9C8.388 14.679 8.51606 14.293 8.83606 14.248L10.579 14C10.706 13.982 10.8159 13.904 10.8719 13.791L11.627 12.293C11.78 11.989 12.222 11.989 12.375 12.293L13.13 13.791C13.187 13.904 13.297 13.982 13.423 14L15.166 14.248C15.486 14.293 15.613 14.679 15.382 14.9ZM3.32605 8.86801L4.38 5.17999C4.75 3.88999 5.00001 3 7.26001 3H10.95C11.116 3 11.25 3.13399 11.25 3.29999V8.95001C11.25 9.11601 11.116 9.25 10.95 9.25H3.61401C3.41501 9.25 3.27105 9.05901 3.32605 8.86801ZM12.75 8.95001V3.29999C12.75 3.13399 12.884 3 13.05 3H16.74C19 3 19.25 3.88999 19.62 5.17999L20.674 8.86801C20.729 9.06001 20.585 9.25 20.386 9.25H13.05C12.884 9.25 12.75 9.11601 12.75 8.95001Z" fill="currentColor"/>
</svg>

<svg xmlns="http://www.w3.org/2000/svg" width="24" height="24" fill="none"><path fill="currentColor" d="M20.7 10.75H3.3a.3.3 0 0 0-.3.3V18c0 2 1 3 3 3h12c2 0 3-1 3-3v-6.95a.3.3 0 0 0-.3-.3Zm-5.318 4.15-1.26 1.202a.378.378 0 0 0-.112.339l.288 1.646c.058.334-.298.588-.604.431l-1.512-.778a.399.399 0 0 0-.362 0l-1.511.777c-.306.158-.664-.098-.605-.432l.288-1.644a.378.378 0 0 0-.112-.339L8.62 14.9a.38.38 0 0 1 .216-.652L10.58 14a.386.386 0 0 0 .293-.209l.755-1.498a.42.42 0 0 1 .748 0l.755 1.498a.39.39 0 0 0 .293.209l1.743.248a.38.38 0 0 1 .216.652ZM3.326 8.868 4.38 5.18C4.75 3.89 5 3 7.26 3h3.69a.3.3 0 0 1 .3.3v5.65a.3.3 0 0 1-.3.3H3.614a.3.3 0 0 1-.288-.382Zm9.424.082V3.3a.3.3 0 0 1 .3-.3h3.69c2.26 0 2.51.89 2.88 2.18l1.054 3.688a.3.3 0 0 1-.288.382H13.05a.3.3 0 0 1-.3-.3Z"/></svg>
